public/images/cloud-150.svg

<svg xmlns="http://www.w3.org/2000/svg" width="152" height="101" viewBox="0 0 152 101" fill="none"><path fill-rule="evenodd" clip-rule="evenodd" d="M134.055 40.8949C135.339 35.7532 135.372 30.2229 133.903 24.7412C129.288 7.51419 111.58 -2.70907 94.3533 1.90689C84.5825 4.52497 77.0648 11.3544 73.2297 19.9191C66.5707 15.8547 58.3233 14.4196 50.1928 16.5981C39.4259 19.4831 31.65 27.9589 29.1517 38.0652C26.7783 38.1046 24.3713 38.4328 21.9745 39.075C6.21729 43.2971 -3.13373 59.4936 1.0884 75.2507C5.31052 91.0079 21.507 100.359 37.2641 96.1368C42.4941 94.7355 47.0184 92.0149 50.5748 88.4292C57.7933 95.6801 68.5836 98.9749 79.1754 96.1368C85.1114 94.5463 90.1382 91.2564 93.8728 86.9309C101.22 97.7005 114.819 103.192 128.125 99.6267C144.964 95.1147 154.957 77.8062 150.445 60.9671C148.011 51.8835 141.854 44.792 134.055 40.8949Z" fill="white"></path></svg>

<svg xmlns="http://www.w3.org/2000/svg" width="152" height="101" fill="none" viewBox="0 0 152 101"><path fill="#fff" fill-rule="evenodd" d="M134.055 40.895a32.14 32.14 0 0 0-.152-16.154c-4.615-17.227-22.323-27.45-39.55-22.834-9.77 2.618-17.288 9.447-21.123 18.012-6.66-4.064-14.907-5.5-23.037-3.32-10.767 2.884-18.543 11.36-21.041 21.466-2.374.04-4.78.368-7.178 1.01C6.217 43.297-3.134 59.494 1.088 75.251s20.419 25.108 36.176 20.886a29.4 29.4 0 0 0 13.31-7.708c7.22 7.251 18.01 10.546 28.601 7.708a29.4 29.4 0 0 0 14.698-9.206c7.347 10.77 20.946 16.261 34.252 12.696 16.839-4.512 26.832-21.82 22.32-38.66-2.434-9.083-8.591-16.175-16.39-20.072" clip-rule="evenodd"/></svg>
